X: 1
T:Country Roads
C:John Denver, Arr. Jay Buckey
S:jaybuckey.com
M:4/4
L:1/4
K:A
P:Verse
z2 "A"E E | F E3 | z2 "F#m"F E | F A3 |
w:1.~Al-most Hea-ven. West Vir-gin-ia.
w:2.~All my mem'-ries gath-er round her.
z2 "E"B B | c B3 | "D"F F F E | "A"F A3 |
w:Blue Ridge Moun-tains. Shen-nan-do-ah Riv-er.
w:Min-er's la-dy. Stran-ger to blue wat-er.
z2 E E | F E3 | "F#m"F A A c | A4 |
w:Life is old there, old-er than the trees,
w:Dark and dust-y, paint-ed on the sky.
"E"B B B B | c B3 | "D"F A A B | "A"A2 |]
w:young-er than the moun-tains, blow-ing like the breeze.
w:Mist-y taste of moon-shine. Tear-drops in my eye.
%
P:Chorus
A B | c4 | z2 c A | "E"B4 | z2
w:Coun-try roads take me home
c B | "F#m"A4 | z2 c e | "D"f4 | z2
w:to the place I be-long,
f f | "A"e c3 | z2 c A | "E"B c3 | z2
w:West Vir-gin-ia, moun-tain ma-ma.
c B | "D"A4 | z2 A B | "A"A4 | z4 |]
w:Take me home, coun-try roads.
%
P:Bridge
z "F#m"A A A | "E"E2
w:I hear her voice.
A B | "A"c c c c | c B A2 | z
w:In the morn-ing hour she calls_ me.
"D"d d d | "A"d c B A | "E"B2 c c | B4 |
w:Radi-o re-minds me of my home far a-way.
"F#m"c c c c | "G"B B B B | "D"A A
w:Driv-in' down the road I get a feel-in'
A A | "A"A A B A | "E"B c B2 | z2
w:that I should have been home yes-ter-day,
B c | d4 | z2 |]
w:yes-ter-day.

%---------------------------------------------------------------------

